!!!COM: de Machuat, Guillaume
!!!OTL: Cinc, un, treze
!! Guillaume de Machaut, "Cinc, un, treze" No. 6 from Volume 5 of
!! "Oeuvres Comple\tes" E/ditions de l'Oiseau-lyre (Monaco) -1977; p.5
**kern	**kern
*M6/8	*M6/8
=1	=1
2.D	2.d
=2	=2
2.F#	8c#
.	8r
.	8d
.	4c#
.	8d
=3	=3
2.E	4.e
.	8g
.	4f
=4	=4
4.c#	8e
.	8f
.	8e
4.d	8f
.	4d
=5	=5
4.A	8b-
.	4a
4r	8g
.	4f
8d	.
=6	=6
4.c#	8e
.	8f
.	8e
4.d	8f
.	4d
=7	=7
8A	4.e
4G	.
8A	4.d
4F	.
=8	=8
2.E	2.c#
=9	=9
4.C	4g
.	8f
8D	4e
4E	.
.	8f
=10	=10
4.F	4e
.	8d
4.E	4d
.	8c#
=11	=11
2.D	2.d
=12	=12
4.D	8b
.	4a
4.E	8g#
.	8a
.	8g#
=13	=13
4F	8a
.	4f
8G	.
4.A	8g
.	4f
=14	=14
2.G	4e
.	8r
.	8g
.	4f
=15	=15
4.A	8e
.	8f
.	8e
[4.F	8f
.	4d
=16	=16
4.F]	8g
.	4f
4.G	8e
.	4d
=17	=17
8A	4.c#
4G	.
8A	4.d
4F	.
=18	=18
2.E;	2.e;
=19	=19
2.d	2.f
=20	=20
4r	4e
8c#	8r
4r	4.f
8d	.
=21	=21
2.A	4e
.	8r
.	8g
.	4f
=22	=22
2.G	8f
.	4e
.	8f
.	4d
=23	=23
8A	8f
4G	4e
8A	8f
4F	4d
=24	=24
4.E	2.c#
4.A	.
=25	=25
4.G	8c#
.	4d
4.F	8c#
.	4d
=26	=26
2.E	4.e
.	8g
.	8f
.	8g
=27	=27
4.c#	8e
.	8f
.	8e
4.d	8f
.	4d
=28	=28
2.A	8b-
.	4a
.	8g
.	4f
=29	=29
8F	[4.e
4G	.
4.A	4e]
.	8d
=30	=30
4.D	8d
.	8c#
.	8d
4.E	4c#
.	8B
=31	=31
1.D	1.d
==	==
*-	*-
